!!!!SEGMENT: Ror0118-Ben_si_conviene_a_voi.krn
!!!id: Ror0118
!!!AGN: Secular work
!!!voices: 5
!!!COM: Cipriano de Rore
!!!OTL: Ben si conviene a voi
**kern	**text	**kern	**text	**kern	**text	**kern	**text	**kern	**text
*part5	*part5	*part4	*part4	*part3	*part3	*part2	*part2	*part1	*part1
*staff5	*staff5	*staff4	*staff4	*staff3	*staff3	*staff2	*staff2	*staff1	*staff1
*I"Bassus	*	*I"Tenor II	*	*I"Tenor I	*	*I"Altus	*	*I"Superius	*
*I'B	*	*I'T. II	*	*I'T. I	*	*I'A	*	*I'S	*
*clefF4	*	*clefGv2	*	*clefGv2	*	*clefGv2	*	*clefG2	*
*k[b-]	*	*k[b-]	*	*k[b-]	*	*k[b-]	*	*k[b-]	*
*M2/1	*	*M2/1	*	*M2/1	*	*M2/1	*	*M2/1	*
*met(C)	*	*met(C)	*	*met(C)	*	*met(C)	*	*met(C)	*
=1	=1	=1	=1	=1	=1	=1	=1	=1	=1
1r	.	1r	.	1r	.	2D	Ben	1r	.
.	.	.	.	.	.	2.F	si	.	.
1r	.	1r	.	1d	Ben	.	.	1r	.
.	.	.	.	.	.	4G	con-	.	.
.	.	.	.	.	.	4A	-vie-	.	.
.	.	.	.	.	.	4A	-ne a	.	.
=2	=2	=2	=2	=2	=2	=2	=2	=2	=2
1r	.	1r	.	2.G	si	4.B-y	vo-	2g	Ben
.	.	.	.	.	.	8A	.	.	.
.	.	.	.	.	.	4G	.	4b-y	si
.	.	.	.	4A	con-	8FL	.	4cc	con-
.	.	.	.	.	.	8EJ	.	.	.
2G	Ben	2r	.	4.B-y	-vie-	4D	-i,	4.dd	-vie-
.	.	.	.	.	.	2D	Ben	.	.
.	.	.	.	8c	-ne a	.	.	8ee	-ne a
2D	si	2A	Ben	2d	voi,	.	.	4ff	voi
.	.	.	.	.	.	4F	si	4ff	Co-
=3	=3	=3	=3	=3	=3	=3	=3	=3	=3
4E	con-	2.c	si	2r	.	4G	con-	4ee	-si
2F	-vie-	.	.	.	.	2A	-vie-	4cc	bel
.	.	.	.	2A	Ben	.	.	2ff	no-
4D	-ne a	4d	con-	.	.	4A	-ne a	.	.
2A	voi	4.e	-vie-	4A	si	4c	voi	2ee	-me,
.	.	.	.	4c	con-	4c	Co-	.	.
.	.	8f	-ne a	.	.	.	.	.	.
2G	Co-	4g	voi	4.d	-vie-	4B-y	-si	2r	.
.	.	4g	Co-	.	.	4B-y	bel	.	.
.	.	.	.	8e	-ne a	.	.	.	.
=4	=4	=4	=4	=4	=4	=4	=4	=4	=4
4F	-si	2c	-si	4f	voi	2A	no-	2r	.
4F	bel	.	.	2f	Co-	.	.	.	.
4.D	no-	4d	bel	.	.	2A	-me,	4r	.
.	.	2f	no-	4d	-si	.	.	2a	Ben
8E	.	.	.	.	.	.	.	.	.
2.F	.	.	.	4c	bel	4r	.	.	.
.	.	4c	-me,	4.f	no-	4A	Ben	4a	si
.	.	4r	.	.	.	4A	si	4cc	con-
.	.	.	.	8e	.	.	.	.	.
[4BB-y	.	[4f	Co-	[4d	.	4B-y	con-	[4dd	-vie-
=5	=5	=5	=5	=5	=5	=5	=5	=5	=5
8BB-L]	.	4f]	.	8dL]	.	4.F	-vie-	8ddL]	.
8C	.	.	.	8cJ	.	.	.	8eeJ	-ne a
8D	.	2d	-si	4B-y	.	.	.	4ff	voi
8EJ	.	.	.	.	.	8G	-ne a	.	.
2F	-me,	.	.	2A	-me,	4A	voi	4r	.
.	.	4c	bel	.	.	4A	Co-	2ff	Co-
2r	.	2B-y	no-	2f	Co-	4D	-si	.	.
.	.	.	.	.	.	4D	bel	4dd	-si
2F	Co-	[2A	-me,	4f	-si	2A	no-	4cc	bel
.	.	.	.	4c	bel	.	.	[4ff	no-
=6	=6	=6	=6	=6	=6	=6	=6	=6	=6
4D	-si	2A]	.	2f	no-	2A	-me,	8ffL]	.
.	.	.	.	.	.	.	.	8eeJ	.
4D	bel	.	.	.	.	.	.	2dd	.
2A	no-	2r	.	2e	-me,	4r	.	.	.
.	.	.	.	.	.	2A	al-	4cc#i	.
2D	-me,	2A	al-	2f	al-	.	.	1dd	-me,
.	.	.	.	.	.	4A	-ma	.	.
4r	.	[2B-y	-ma	2d	-ma	4F	mia	.	.
[4G	al-	.	.	.	.	[4B-y	ro-	.	.
=7	=7	=7	=7	=7	=7	=7	=7	=7	=7
4G]	.	4B-]	.	4d	mia	4B-]	.	1r	.
2E-X	-ma	4B-y	mia	2e-X	ro-	4G	-sa,	.	.
.	.	4B-y	ro-	.	.	2G	poi	.	.
4C	mia	4c	-sa	4e-i	-sa,	.	.	.	.
2F	ro-	4A	poi	2c	poi	4A	Che	4r	.
.	.	2A	Che	.	.	4A	con	2ff	al-
2D	-sa,	.	.	4d	Che	2A	quel-	.	.
.	.	4A	con	4d	con	.	.	4ff	-ma
=8	=8	=8	=8	=8	=8	=8	=8	=8	=8
2G	poi	2B-y	quel-	2d	quel-	2.G	-la	2dd	mia
4C	Che	4G	-la	2.c	-la	.	.	2ee-X	ro-
4C	con	4G	bel-	.	.	4G	bel-	.	.
4F	quel-	2A	-tà,	.	.	4F	-tà	4cc	-sa,
2F	-la	.	.	4c	bel-	4A	che ’l	2cc	poi
.	.	2f	al-	4A	-tà	2A	mon-	.	.
4D	bel-	.	.	4A	che ’l	.	.	4dd	Che
=9	=9	=9	=9	=9	=9	=9	=9	=9	=9
2.G	-tà	2d	-ma	4B-y	mon-	4G	-do ho-	4dd	con
.	.	.	.	4B-y	-do ho-	4.B-y	-no-	2dd	quel-
.	.	4d	mia	2G	-no-	.	.	.	.
.	.	.	.	.	.	8AL	.	.	.
4C	che ’l	2e-X	ro-	.	.	8G	.	2cc	-la
.	.	.	.	.	.	8FJ	.	.	.
4C	mon-	.	.	4G	-ra,	4G	.	.	.
4F	-do ho-	4c	-sa	4A	che ’l	4F	-ra,	4cc	bel-
2F	-no-	2c	poi	4A	mon-	4r	.	4a	-tà
.	.	.	.	4F	-do ho-	[4F	che ’l	4a	che ’l
=10	=10	=10	=10	=10	=10	=10	=10	=10	=10
4BB-y	-ra,	4d	Che	2B-y	-no-	4F]	.	8b-yL	mon-
.	.	.	.	.	.	.	.	8cc	.
4BB-y	che ’l	4d	con	.	.	2B-y	mon-	8dd	.
.	.	.	.	.	.	.	.	8eeJ	.
4.D	mon-	2d	quel-	2F	-ra,	.	.	4ff	.
.	.	.	.	.	.	2A	-do ho-	4.ff	-do ho-
8E	.	.	.	.	.	.	.	.	.
4F	.	4c	-la	1r	.	.	.	.	.
.	.	.	.	.	.	.	.	8cc	.
4C	-do ho-	4c	bel-	.	.	4.G	-no-	4ee-X	.
2D	-no-	4A	-tà	.	.	.	.	2dd	-no-
.	.	.	.	.	.	8F#i	.	.	.
.	.	4A	che ’l	.	.	4F#i	.	.	.
=11	=11	=11	=11	=11	=11	=11	=11	=11	=11
2G	-ra,	4.B-y	mon-	4r	.	4G	-ra,	1dd	-ra,
.	.	.	.	2G	Vin-	2B-y	Vin-	.	.
.	.	8c	.	.	.	.	.	.	.
4r	.	8dL	.	.	.	.	.	.	.
.	.	8eJ	.	.	.	.	.	.	.
4D	Vin-	4f	.	2A	-ce-	4A	-ce-	.	.
4F	-ce-	4c	-do ho-	.	.	4A	-te i	1r	.
4C	-te i	4.e-X	-no-	4c	-te i	4G	piu	.	.
4G	piu	.	.	4B-y	piu	4G	bei	.	.
.	.	8d	.	.	.	.	.	.	.
4G	bei	[4d	.	4B-y	bei	[4B-y	fio-	.	.
=12	=12	=12	=12	=12	=12	=12	=12	=12	=12
2E-X	fio-	4d]	.	2G	fio-	4B-]	.	2r	.
.	.	4c	.	.	.	8AL	.	.	.
.	.	.	.	.	.	8GJ	.	.	.
2D	-ri,	4d	-ra,	4A	-ri,	2F	.	2a	Vin-
.	.	4A	Vin-	4d	Vin-	.	.	.	.
1r	.	4A	-ce-	4c	-ce-	4E	-ri,	4cc	-ce-
.	.	4c	-te i	4c	-te i	4E	Vin-	4g	-te i
.	.	4B-y	piu	4d	piu	4F	-ce-	4dd	piu
.	.	4B-y	bei	4f	bei	4D	-te i	4dd	bei
=13	=13	=13	=13	=13	=13	=13	=13	=13	=13
2r	.	2G	fio-	4e-X	fio-	4G	piu	2b-y	fio-
.	.	.	.	4.d	-ri,	4G	bei	.	.
2D	E i	4A	-ri,	.	.	2F	fio-	1.a	-ri
.	.	.	.	8enXiL	.	.	.	.	.
.	.	4d	E i	8f	.	.	.	.	.
.	.	.	.	8gJ	.	.	.	.	.
2.D	piu	4.f	piu	4a	.	4D	-ri,	.	.
.	.	.	.	4d	E i	4A	E i	.	.
.	.	8e	.	.	.	.	.	.	.
.	.	4d	.	4f	piu	4A	piu	.	.
4F	so-	4A	so-	4c	so-	4A	so-	.	.
=14	=14	=14	=14	=14	=14	=14	=14	=14	=14
4E-X	-a-	4B-y	-a-	4e-X	-a-	2.G	-a-	1r	.
4E-i	-vi o-	4B-y	-vi o-	4e-i	-vi o-	.	.	.	.
2C	-do-	2c	-do-	2e-i	-do-	.	.	.	.
.	.	.	.	.	.	4G	-vi o-	.	.
2D	-ri,	4A	-ri,	4.d	-ri,	2F	-do-	4r	.
.	.	2d	E i	.	.	.	.	4dd	E i
.	.	.	.	16cLL	.	.	.	.	.
.	.	.	.	16B-yJJ	.	.	.	.	.
2D	E i	.	.	2A	.	4D	-ri,	2ff	piu
.	.	[4f	piu	.	.	4A	E i	.	.
=15	=15	=15	=15	=15	=15	=15	=15	=15	=15
4F	piu	4f]	.	4r	.	4A	piu	2cc	so-
4F	so-	4f	so-	4A	E i	4A	so-	.	.
2.C	-a-	4e-X	-a-	2c	piu	2.G	-a-	4ee-X	-a-
.	.	4e-i	-vi o-	.	.	.	.	4ee-i	-vi o-
.	.	2c	-do-	2G	so-	.	.	2ee-i	-do-
4C	-vi o-	.	.	.	.	4G	-vi o-	.	.
2G	-do-	4d	-ri,	4B-y	-a-	2G	-do-	2dd	-ri,
.	.	4d	E i	4B-y	-vi o-	.	.	.	.
=16	=16	=16	=16	=16	=16	=16	=16	=16	=16
2G	-ri,	4d	piu	2B-y	-do-	2G	-ri,	4r	.
.	.	4g	so-	.	.	.	.	2dd	E i
2D	E i	2.f	-a-	4A	-ri,	4r	.	.	.
.	.	.	.	4d	E i	4A	E i	2ff	piu
2F	piu	.	.	4c	piu	4A	piu	.	.
.	.	4f	-vi o-	4c	so-	4A	so-	4cc	so-
2BB-y	so-	4.d	-do-	4B-y	-a-	[2B-y	-a-	4dd	-a-
.	.	.	.	4B-y	-vi o-	.	.	4dd	-vi o-
.	.	8c	.	.	.	.	.	.	.
=17	=17	=17	=17	=17	=17	=17	=17	=17	=17
4E-i	-a-	8B-yL	.	1G	-do-	4B-]	.	2ee-i	-do-
.	.	8AJ	.	.	.	.	.	.	.
4E-i	-vi o-	2B-y	.	.	.	4G	-vi o-	.	.
2E-i	-do-	.	.	.	.	2G	-do-	2b-y	-ri
.	.	8AL	.	.	.	.	.	.	.
.	.	8GJ	.	.	.	.	.	.	.
2D	-ri,	2d	-ri,	2A	-ri,	4F	-ri,	4r	.
.	.	.	.	.	.	4F	D’o-	2ff	D’o-
4r	.	2r	.	2B-y	D’o-	4.D	-dor	.	.
4G	D’o-	.	.	.	.	.	.	4dd	-dor
.	.	.	.	.	.	8E	.	.	.
=18	=18	=18	=18	=18	=18	=18	=18	=18	=18
4D	-dor	4r	.	4A	-dor	2F	.	4dd	vin-
4F	vin-	4f	D’o-	4A	vin-	.	.	2cc	-ce-
4F	-ce-	4f	-dor	4A	-ce-	4C	vin-	.	.
4G	-te an-	4d	vin-	4B-y	-te an-	2G	-ce-	4b-y	-te an-
2C	-cho-	4.c	-ce-	2G	-cho-	.	.	2ee-i	-cho-
.	.	.	.	.	.	4G	-te an-	.	.
.	.	8B-y	.	.	.	.	.	.	.
4D	-ra,	4A	.	4d	-ra,	2F	-cho-	2dd	-ra,
[4D	D’o-	4B-y	-te an-	[4f	D’o-	.	.	.	.
=19	=19	=19	=19	=19	=19	=19	=19	=19	=19
4D]	.	4A	-cho-	4f]	.	4D	-ra,	2dd	D’o-
4G	-dor	4G	-ra,	4d	-dor	4B-y	D’o-	.	.
4D	vin-	4r	.	4d	vin-	4A	-dor	4ff	-dor
4F	-ce-	4A	D’o-	2c	-ce-	4A	vin-	4cc	vin-
4C	-te an-	4c	-dor	.	.	2.G	-ce-	4.ee-X	-ce-
4.E-X	-cho-	2G	vin-	4B-y	-te an-	.	.	.	.
.	.	.	.	.	.	.	.	16ddLL	.
.	.	.	.	.	.	.	.	16ccJJ	.
.	.	.	.	2e-i	-cho-	.	.	4b-y	.
8D	.	.	.	.	.	.	.	.	.
4C	.	4c	-ce-	.	.	4G	-te an-	4cc	-te an-
=20	=20	=20	=20	=20	=20	=20	=20	=20	=20
2BB-y	-ra,	4F	-te an-	2d	-ra,	4B-y	-cho-	2.dd	-cho-
.	.	4.B-y	-cho-	.	.	2F	-ra,	.	.
2B-y	D’o-	.	.	2d	D’o-	.	.	.	.
.	.	8A	.	.	.	.	.	.	.
.	.	4G	.	.	.	4G	D’o-	8ccL	.
.	.	.	.	.	.	.	.	8b-yJ	.
4A	-dor	4F	-ra,	4f	-dor	4A	-dor	2cc	-ra,
4A	vin-	4c	D’o-	4e	vin-	4A	vin-	.	.
4G	-ce-	4d	-dor	4g	-ce-	4B-y	-ce-	2r	.
4F	-te an-	[4f	vin-	4c	-te an-	[4A	-te an-	.	.
=21	=21	=21	=21	=21	=21	=21	=21	=21	=21
2B-y	-cho-	8fL]	.	2d	-cho-	8AL]	.	1r	.
.	.	8eJ	.	.	.	16GL	.	.	.
.	.	.	.	.	.	16FJJ	.	.	.
.	.	4d	.	.	.	4G	.	.	.
4A	-ra,	2.c	-ce-	4e	-ra,	2A	-cho-	.	.
4F	D’o-	.	.	4f	D’o-	.	.	.	.
4F	-dor	.	.	4f	-dor	4A	-ra,	1r	.
4G	vin-	4B-y	-te an-	4d	vin-	4B-y	D’o-	.	.
4C	-ce-	2e-i	-cho-	4.c	-ce-	4G	-dor	.	.
4C	-te an-	.	.	.	.	4G	vin-	.	.
.	.	.	.	8B-y	.	.	.	.	.
=22	=22	=22	=22	=22	=22	=22	=22	=22	=22
2D	-cho-	1d	-ra,	4A	.	2.F	-ce-	2.ff	Dhe,
.	.	.	.	4B-y	-te an-	.	.	.	.
2D	-ra,	.	.	2A	-cho-	.	.	.	.
.	.	.	.	.	.	4F	-te an-	4dd	se ’l
2.G	Dhe,	4r	.	4G	-ra,	2B-y	-cho-	2.dd	ciel
.	.	2B-y	Dhe,	2g	Dhe,	.	.	.	.
.	.	.	.	.	.	2G	-ra,	.	.
4C	se ’l	4G	se ’l	4e	se ’l	.	.	[4ee	ve
=23	=23	=23	=23	=23	=23	=23	=23	=23	=23
2C	ciel,	2G	ciel	2e	ciel,	2.c	Dhe,	4ee]	.
.	.	.	.	.	.	.	.	4ee	s’ag-
2.F	Dhe,	4.A	ve	2r	.	.	.	4ff	-gi-
.	.	.	.	.	.	4A	se ’l	4cc	-ri ad-
.	.	8B-y	.	.	.	.	.	.	.
.	.	4c	.	2.f	Dhe,	2A	ciel	4.ff	-ho-
4D	se ’l	4d	s’ag-	.	.	.	.	.	.
.	.	.	.	.	.	.	.	8ee	.
2D	ciel	4.d	-gi-	.	.	2A	ve	4dd	.
.	.	.	.	4f	se ’l	.	.	4dd	-ra ad-
.	.	8c	.	.	.	.	.	.	.
=24	=24	=24	=24	=24	=24	=24	=24	=24	=24
2.G	ve	4B-y	.	4d	ciel	4G	s’ag-	4.dd	-ho-
.	.	4B-y	-ri ad-	2d	ve	2G	-gi-	.	.
.	.	.	.	.	.	.	.	8cc	.
.	.	4B-y	-ho-	.	.	.	.	2b-y	.
4G	s’ag-	4G	-ra ad-	4e	s’ag-	4G	-ri ad-	.	.
2F	-gi-	2A	-ho-	4f	-gi-	4C	-ho-	4a	-ra,
.	.	.	.	4c	-ri ad-	4C	-ra ad-	2ff	Dhe,
2BB-y	-ri ad-	4B-y	-ra,	4.f	-ho-	2D	-ho-	.	.
.	.	[4B-y	Dhe,	.	.	.	.	4dd	se ’l
.	.	.	.	8e	.	.	.	.	.
=25	=25	=25	=25	=25	=25	=25	=25	=25	=25
4.B-y	-ho-	4B-]	.	4d	.	4F	-ra,	2dd	ciel
.	.	4G	se ’l	4d	-ra ad-	2B-y	Dhe,	.	.
8A	.	.	.	.	.	.	.	.	.
4G	.	4G	ciel	4.d	-ho-	.	.	4r	.
4G	-ra ad-	2d	ve	.	.	4B-y	se ’l	2dd	ve
.	.	.	.	8c	.	.	.	.	.
2G	-ho-	.	.	2B-y	.	2G	ciel	.	.
.	.	4e	s’ag-	.	.	.	.	4g	s’ag-
4F	-ra,	4f	-gi-	4.A	-ra,	[2A	ve	2cc	-gi-
[4F	ve	4c	-ri ad-	.	.	.	.	.	.
.	.	.	.	8B-y	.	.	.	.	.
=26	=26	=26	=26	=26	=26	=26	=26	=26	=26
4F]	.	4.f	-ho-	2c	.	4A]	.	4cc	-ri ad-
4F	s’ag-	.	.	.	.	4A	s’ag-	4.ff	-ho-
.	.	8e	.	.	.	.	.	.	.
4.B-y	-gi-	4d	.	2r	.	4B-y	-gi-	.	.
.	.	.	.	.	.	.	.	8ee	.
.	.	4d	-ra ad-	.	.	4F	-ri ad-	2dd	.
8A	.	.	.	.	.	.	.	.	.
2G	.	4.d	-ho-	4r	.	4.B-y	-ho-	.	.
.	.	.	.	2d	Piu	.	.	4dd	-ra ad-
.	.	8c	.	.	.	8A	.	.	.
4G	-ri ad-	2B-y	.	.	.	4G	.	4.dd	-ho-
[4G	-ho-	.	.	[4d	ch’ad	4G	-ra ad-	.	.
.	.	.	.	.	.	.	.	8cc	.
=27	=27	=27	=27	=27	=27	=27	=27	=27	=27
8GL]	.	2G	-ra,	4d]	.	4.G	-ho-	2b-y	.
8FJ	.	.	.	.	.	.	.	.	.
2E-X	.	.	.	4G	al-	.	.	.	.
.	.	.	.	.	.	8F	.	.	.
.	.	4r	.	4B-y	-tra	2E-X	.	2g	-ra,
4C	-ra ad-	2g	Piu	4c	gia-	.	.	.	.
4D	-ho-	.	.	2A	-mai	4D	-ra,	4r	.
4D	-ra,	4f	ch’ad	.	.	4A	Piu	2dd	Piu
4r	.	4d	al-	2B-y	cor-	4F	ch’ad	.	.
4d	Piu	[4f	-tra	.	.	8DL	al-	4dd	ch’ad
.	.	.	.	.	.	8EnXJny	.	.	.
=28	=28	=28	=28	=28	=28	=28	=28	=28	=28
4c	ch’ad	4f]	.	4.F	-te-	8FL	.	4a	al-
.	.	.	.	.	.	8GJ	.	.	.
4A	al-	4f	gia-	.	.	4A	.	2cc	-tra
.	.	.	.	8G	.	.	.	.	.
4c	-tra	2e	-mai	4A	.	4A	-tra	.	.
4c	gia-	.	.	4A	-se e	4c	gia-	4cc	gia-
4G	-mai,	1g	cor-	2B-y	pi-	2.B-y	-mai	2dd	-mai
2G	Piu	.	.	.	.	.	.	.	.
.	.	.	.	4G	-o,	.	.	[2dd	cor-
4G	ch’ad	.	.	4d	Piu	4B-y	cor-	.	.
=29	=29	=29	=29	=29	=29	=29	=29	=29	=29
4D	al-	4.f	-te-	4d	ch’ad	4A	-te-	4dd]	.
2F	-tra	.	.	4A	al-	4A	-se e	2cc	-te-
.	.	8g	.	.	.	.	.	.	.
.	.	4a	.	4c	-tra	2F	pi-	.	.
4F	gia-	4A	-se e	4c	gia-	.	.	4cc	-se e
4.BB-y	-mai	8B-yL	pi-	2d	-mai	2F	-o,	2b-y	pi-
.	.	8c	.	.	.	.	.	.	.
.	.	8d	.	.	.	.	.	.	.
8C	.	8eJ	.	.	.	.	.	.	.
4D	.	2f	.	2d	cor-	4r	.	2a	-o,
4D	cor-	.	.	.	.	8FL	cor-	.	.
.	.	.	.	.	.	8GJ	.	.	.
=30	=30	=30	=30	=30	=30	=30	=30	=30	=30
4F	-te-	4f	-o,	4c	-te-	8AL	.	4r	.
.	.	.	.	.	.	8B-yJ	.	.	.
4F	-se e	4c	Piu	4A	-se e	4c	.	4a	Non
2G	pi-	4g	ch’ad	2B-y	pi-	4B-y	-te-	4d	sprez-
.	.	4d	al-	.	.	4G	-se e	4dd	-za-
4D	-o,	4f	-tra	2A	-o,	2A	pi-	4dd	-te or-
4A	Non	4e	gia-	.	.	.	.	4cc#i	-go-
4D	sprez-	4.f	-mai	2r	.	2A	-o,	4dd	-glio-
4d	-za-	.	.	.	.	.	.	4dd	-sa il
.	.	8e	.	.	.	.	.	.	.
=31	=31	=31	=31	=31	=31	=31	=31	=31	=31
4d	-te or-	4d	.	1r	.	4r	.	4ff	ser-
4c#X	-go-	4e	cor-	.	.	2A	Non	4ee	-vir
2d	-glio-	4.a	-te-	.	.	.	.	1ff	mi-
.	.	.	.	.	.	4D	sprez-	.	.
.	.	8g	.	.	.	.	.	.	.
2D	-sa il	8fL	.	4r	.	4A	-za-	.	.
.	.	8e	.	.	.	.	.	.	.
.	.	8d	.	4d	Non	4A	-te or-	.	.
.	.	8cJ	.	.	.	.	.	.	.
4G	ser-	4B-y	.	4G	sprez-	4G	-go-	[2dd	-o,
4F#X	-vir	4A	-se e	4d	-za-	4A	-glio-	.	.
=32	=32	=32	=32	=32	=32	=32	=32	=32	=32
2G	mi-	8B-yL	pi-	4d	-te or-	4D	-sa il	2dd]	.
.	.	8c	.	.	.	.	.	.	.
.	.	8d	.	4G	-go-	2B-y	ser-	.	.
.	.	8eJ	.	.	.	.	.	.	.
4D	-o,	2f	.	2d	-glio-	.	.	4r	.
4d	Non	.	.	.	.	4A	-vir	4dd	il
4G	sprez-	2d	-o,	4d	-sa il	2B-y	mi-	4.dd	ser-
4d	-za-	.	.	2f	ser-	.	.	.	.
.	.	.	.	.	.	.	.	8cc	.
4d	-te or-	2r	.	.	.	4A	-o,	4dd	.
4c#X	-go-	.	.	4e	-vir	[4A	Non	4ee	-vir
=33	=33	=33	=33	=33	=33	=33	=33	=33	=33
2d	-glio-	1r	.	2f	mi-	4A]	.	4a	mi-
.	.	.	.	.	.	4D	sprez-	4a	-o,
2D	-sa il	.	.	4f	-o,	4A	-za-	2dd	Non
.	.	.	.	4F	Non	2B-y	-te or-	.	.
4E-X	ser-	4r	.	4G	sprez-	.	.	4g	sprez-
4D	-vir	4d	Non	4B-y	-za-	4F	-go-	4dd	-za-
2E-i	mi-	4G	sprez-	4B-y	-te or-	4G	-glio-	4b-y	-te or-
.	.	4g	-za-	4G	-go-	4G	-sa il	4cc	-go-
=34	=34	=34	=34	=34	=34	=34	=34	=34	=34
4D	-o,	4g	-te or-	4.d	-glio-	4B-y	ser-	2dd	-glio-
4D	il	4f#i	-go-	.	.	4A	-vir	.	.
.	.	.	.	8c	.	.	.	.	.
4G	ser-	4g	-glio-	4B-y	.	2B-y	mi-	2dd	-sa
4G	-vir	4g	-sa il	4G	-sa il	.	.	.	.
2D	mi-	4.fnXi	ser-	4.d	ser-	[1A	-o,	4r	.
.	.	.	.	.	.	.	.	2dd	il
.	.	8e	.	8e	.	.	.	.	.
2D	-o,	4d	.	4f	.	.	.	.	.
.	.	4A	-vir	4f	-vir	.	.	[4ff	ser-
=35	=35	=35	=35	=35	=35	=35	=35	=35	=35
1r	.	2d	mi-	2f	mi-	2A]	.	8ffL]	.
.	.	.	.	.	.	.	.	8eeJ	.
.	.	.	.	.	.	.	.	2dd	.
.	.	4A	-o,	2e	-o,	4r	.	.	.
.	.	4A	Non	.	.	4A	Non	4cc#i	-vir
2G	Non	8B-yL	sprez-	2r	.	4D	sprez-	1dd	mi-
.	.	8c	.	.	.	.	.	.	.
.	.	8d	.	.	.	4B-y	-za-	.	.
.	.	8eJ	.	.	.	.	.	.	.
4D	sprez-	4f	.	2d	Non	4B-y	-te or-	.	.
4d	-za-	4f	-za-	.	.	4A	-go-	.	.
=36	=36	=36	=36	=36	=36	=36	=36	=36	=36
4d	-te or-	4d	-te or-	4G	sprez-	2B-y	-glio-	[0ddl	-o.
4G	-go-	4d	-go-	4g	-za-	.	.	.	.
2d	-glio-	4.d	-glio-	4g	-te or-	2A	-sa	.	.
.	.	.	.	4f#i	-go-	.	.	.	.
.	.	8c	.	.	.	.	.	.	.
2G	-sa il	4B-y	.	2g	-glio-	4r	.	.	.
.	.	2G	-sa il	.	.	2B-y	il	.	.
4.B-y	ser-	.	.	2G	-sa il	.	.	.	.
.	.	[4d	ser-	.	.	[4G	ser-	.	.
8A	.	.	.	.	.	.	.	.	.
=37	=37	=37	=37	=37	=37	=37	=37	=37	=37
4G	.	4d]	.	4B-y	ser-	4G]	.	0dd_	.
4D	-vir	4f	-vir	4A	-vir	4A	-vir	.	.
2G	mi-	2d	mi-	2B-y	mi-	2G	mi-	.	.
[1Dl	-o.	[1dl	-o.	[1Al	-o.	[1F#Xl	-o.	.	.
=38	=38	=38	=38	=38	=38	=38	=38	=38	=38
0D]	.	0d]	.	0A]	.	0F#]	.	0dd]	.
==	==	==	==	==	==	==	==	==	==
*-	*-	*-	*-	*-	*-	*-	*-	*-	*-
!!!system-decoration: s1,s2,s3,s4,s5
!!!RDF**kern: i = editorial accidental
!!!RDF**kern: l = terminal long
!!!ENC: Janosch Umbreit
!!!END: 2026/04/19
!!!EED: Benjamin Ory
!!!EEV: 2026/05/18
!!!YEC: Copyright 2026 Jessie Ann Owens and Scott Metcalfe, All Rights Reserved
!!!ONB: Translated from MusicXML on 2026/05/18
!!!verovio: header encoded
!!!header-left: Edited by Jessie Ann Owens and Scott Metcalfe (2026)\n
!!!header-right:
!!!header-center:
!!muse2ps: C^@{COM}^i2I150v75,75,75,75,110c122z18l2780t100